docs/assets/deltaFlow.svg

<?xml version='1.0' encoding='UTF-8'?>
<!-- Scaled 8× -->
<svg version='1.1' xmlns='http://www.w3.org/2000/svg' xmlns:xlink='http://www.w3.org/1999/xlink' width='156.180248pt' height='158.421pt' viewBox='-7.609672 -2.64816 156.180248 158.421'>
<defs>
<path id='g0-1' d='M10.063544-17.103067C9.865247-17.524447 9.766099-17.524447 9.567803-17.524447C9.270358-17.524447 9.245571-17.474873 9.072062-17.127854L1.041056-.42138C1.016269-.371806 .917121-.148722 .917121-.123935C.917121-.024787 .941908 0 1.388075 0H17.722743C18.16891 0 18.193697-.024787 18.193697-.123935C18.193697-.148722 18.094549-.371806 18.069762-.42138L10.063544-17.103067ZM8.948126-15.640631L15.81414-1.388075H2.057325L8.948126-15.640631Z'/>
</defs>
<g id='page1' transform='matrix(9.04 0 0 9.04 -2036.8556 -708.82492)'>
<g fill='#90c'>
<use x='223.556986' y='95.641345' xlink:href='#g0-1'/>
</g>
</g>
</svg>

<svg xmlns="http://www.w3.org/2000/svg" xmlns:xlink="http://www.w3.org/1999/xlink" width="200" height="200" viewBox="-15 -25 200 200"><defs><path id="a" d="M10.064-17.103c-.199-.421-.298-.421-.496-.421-.298 0-.322.05-.496.396L1.042-.42c-.026.05-.125.272-.125.297 0 .1.025.124.471.124h16.335c.446 0 .47-.025.47-.124 0-.025-.098-.248-.123-.297zm-1.116 1.462 6.866 14.253H2.057z"/></defs><g fill="#90c" transform="translate(-2036.856 -708.825)scale(9.04)"><use x="223.557" y="95.641" xlink:href="#a"/><text x="242.5" y="81" font-size="5" font-family="Arial" font-weight="bold">+</text><text x="242.5" y="96" font-size="5" font-family="Arial" font-weight="bold">−</text></g></svg>
